lib/logo_tmp/nrk-logo-nrk-p3-x-on-dark.svg

<svg width="86" height="16" viewBox="0 0 86 16" fill="none" xmlns="http://www.w3.org/2000/svg">
<path d="M85.3334 15L80.5002 7.69732L84.9158 1H82.7068L79.4989 6.33117L75.9798 1H73.5523L78.0873 7.7946L73.3334 14.9997H75.5821L79.1214 9.24587L82.9254 14.9997L85.3334 15Z" fill="white"/>
<path d="M54.0553 1.00586H49.7373C49.7373 1.00586 52.191 5.03384 52.2186 5.08454C52.3111 5.20102 52.3627 5.34466 52.3657 5.49336C52.3686 5.64205 52.3226 5.78758 52.2348 5.90759L49.7373 10.0014H54.056C54.056 10.0014 56.1386 6.596 56.4234 6.12324C56.5585 5.94213 56.6305 5.72171 56.6285 5.49577C56.6264 5.26982 56.5503 5.05078 56.4119 4.87219C56.1047 4.34906 56.104 4.34941 54.0553 1.00586Z" fill="#FFE100"/>
<path d="M49.1793 1.00591H45.3334V14.998H49.1793V1.00591Z" fill="#FFE100"/>
<path d="M67.5809 3.32389C67.4358 3.07632 66.1505 1.00586 66.1505 1.00586H56.9074L58.9265 4.39253H63.7949L61.7867 7.68472L64.0254 11.446L61.8648 14.997H65.8108C66.4452 13.9593 67.3936 12.354 67.5918 12.0251C67.7277 11.8434 67.8002 11.622 67.7981 11.395C67.796 11.1681 67.7195 10.9481 67.5803 10.7688C67.3828 10.4317 66.326 8.75567 65.6945 7.7239C65.6945 7.7239 67.3936 4.90841 67.5918 4.57952C67.7277 4.39788 67.8002 4.17669 67.7982 3.94988C67.7962 3.72307 67.7199 3.50316 67.5809 3.32389Z" fill="#FFE100"/>
<path d="M58.6901 8.13937C58.0817 9.13296 57.0644 10.7981 56.8738 11.1228C56.7396 11.2954 56.6659 11.5073 56.6638 11.726C56.6618 11.9446 56.7316 12.1578 56.8626 12.333C57.0535 12.6497 58.0787 14.328 58.6901 15.3289C59.3011 14.329 60.3266 12.6507 60.5173 12.333C60.6481 12.1578 60.7179 11.9446 60.716 11.726C60.714 11.5074 60.6404 11.2955 60.5064 11.1228C60.3158 10.7981 59.2981 9.13296 58.6901 8.13937Z" fill="#FFE100"/>
<path d="M0 15.0001V1.00135H4.59339V15.0001H0ZM10.8428 3.22932L13.4844 15.0001H8.45737L5.30307 1.00135H8.12254C8.76907 0.992962 9.39641 1.22087 9.88691 1.6422C10.3782 2.04586 10.7158 2.60623 10.8428 3.22932ZM14.1744 15.0001V1.00135H18.7678V15.0001H14.1744ZM22.2372 6.32486C21.7422 6.32969 21.2552 6.20018 20.828 5.95021C20.4064 5.70655 20.0563 5.35637 19.8127 4.93478C19.5624 4.50747 19.4329 4.0203 19.4378 3.52512C19.4321 3.03295 19.5618 2.54869 19.8127 2.12525C20.0589 1.70824 20.4086 1.36186 20.828 1.11969C21.2553 0.870001 21.7423 0.740515 22.2372 0.745029C22.7292 0.73973 23.2133 0.869332 23.6369 1.11969C24.0521 1.36398 24.3981 1.71007 24.6424 2.12525C24.893 2.54881 25.0226 3.03299 25.0172 3.52512C25.0218 4.02026 24.8923 4.50735 24.6424 4.93478C24.4007 5.35452 24.0542 5.70441 23.6369 5.95021C23.2133 6.20105 22.7289 6.33069 22.2366 6.32486H22.2372ZM25.7269 15.0001V1.00135H30.3207V15.0001H25.7269ZM36.136 8.65135C36.1489 8.66494 36.2475 8.82594 36.4317 9.1344C36.6159 9.44285 36.8558 9.83721 37.1513 10.3174C37.447 10.7974 37.759 11.3067 38.0874 11.8454C38.4157 12.3841 38.7247 12.8935 39.0143 13.3735C39.3028 13.8535 39.6313 14.3957 40 15.0001H34.9531C34.6375 14.4875 34.3515 14.0241 34.0952 13.6101C33.8389 13.196 33.5665 12.7491 33.2778 12.2693C32.9884 11.79 32.7024 11.3234 32.4196 10.8695C32.1368 10.4155 31.8938 10.018 31.6905 9.67665C31.4863 9.33512 31.3449 9.10506 31.2663 8.98654C31.0713 8.69243 30.9559 8.35276 30.9315 8.00072C30.951 7.66284 31.0597 7.33622 31.2466 7.05404C31.3254 6.9226 31.47 6.68925 31.6803 6.35407C31.8906 6.01889 32.137 5.62131 32.4196 5.16126C32.7021 4.70121 32.9882 4.23129 33.2778 3.75152C33.5674 3.27175 33.8398 2.82152 34.0952 2.4009C34.3519 1.98072 34.6379 1.5141 34.9531 1.00103H40L36.0962 7.36949C35.9754 7.55857 35.9073 7.77648 35.8991 8.00072C35.9121 8.23612 35.9942 8.46245 36.1353 8.65135H36.136Z" fill="white"/>
</svg>

<svg xmlns="http://www.w3.org/2000/svg" viewBox="0 0 86 16"><path fill="#fff" d="M85.333 15 80.5 7.697 84.916 1h-2.21L79.5 6.331 75.979 1h-2.427l4.535 6.795L73.333 15h2.25l3.538-5.754L82.925 15h2.408Z"/><path fill="#FFE100" d="M54.055 1.006h-4.318s2.454 4.028 2.482 4.079a.68.68 0 0 1 .016.823L49.737 10h4.319s2.083-3.405 2.367-3.878a1.034 1.034 0 0 0-.011-1.25c-.307-.524-.308-.524-2.357-3.867ZM49.18 1.006h-3.847v13.992h3.846V1.006ZM67.58 3.324c-.144-.248-1.43-2.318-1.43-2.318h-9.243l2.02 3.387h4.868l-2.008 3.292 2.238 3.761-2.16 3.551h3.946c.634-1.038 1.583-2.643 1.78-2.972a1.036 1.036 0 0 0-.01-1.256c-.198-.337-1.255-2.013-1.886-3.045l1.897-3.144a1.036 1.036 0 0 0-.011-1.256Z"/><path fill="#FFE100" d="M58.69 8.14a436.99 436.99 0 0 0-1.816 2.983.998.998 0 0 0-.011 1.21c.19.317 1.216 1.995 1.827 2.996.611-1 1.637-2.678 1.827-2.996a1 1 0 0 0-.01-1.21c-.191-.325-1.209-1.99-1.817-2.984Z"/><path fill="#fff" d="M0 15V1.001h4.593v14H0ZM10.843 3.23 13.484 15H8.457L5.303 1.001h2.82a2.655 2.655 0 0 1 1.764.641c.491.404.829.964.956 1.587ZM14.174 15V1.001h4.594v14h-4.594Zm8.063-8.675a2.737 2.737 0 0 1-1.409-.375 2.778 2.778 0 0 1-1.015-1.015 2.735 2.735 0 0 1-.375-1.41 2.685 2.685 0 0 1 .375-1.4 2.812 2.812 0 0 1 3.824-1.005c.415.244.761.59 1.005 1.005.251.424.38.908.375 1.4.005.495-.125.982-.375 1.41a2.8 2.8 0 0 1-1.005 1.015c-.424.251-.908.38-1.4.375ZM25.727 15V1.001h4.594v14h-4.594Zm10.409-6.349c.013.014.111.175.296.483.184.309.424.703.72 1.183a384.573 384.573 0 0 1 1.862 3.056c.289.48.617 1.023.986 1.627h-5.047l-.858-1.39c-.256-.414-.529-.86-.817-1.34-.29-.48-.576-.947-.858-1.4a71.337 71.337 0 0 1-.73-1.193 21.112 21.112 0 0 0-.424-.69A2.04 2.04 0 0 1 30.932 8c.019-.338.128-.665.315-.947.078-.131.223-.365.433-.7a216.7 216.7 0 0 0 1.598-2.603l.817-1.35.858-1.4H40l-3.904 6.368c-.12.19-.189.407-.197.632.013.235.095.461.236.65h.001Z"/></svg>
